data/icons/scalable/actions/arrow-into-box-symbolic.svg

<?xml version="1.0" encoding="UTF-8"?>
<svg xmlns="http://www.w3.org/2000/svg" height="16px" viewBox="0 0 16 16" width="16px"><path d="m 5 0 c -1.644531 0 -3 1.355469 -3 3 v 2 h 2 v -2 c 0 -0.570312 0.429688 -1 1 -1 h 8 c 0.570312 0 1 0.429688 1 1 v 10 c 0 0.570312 -0.429688 1 -1 1 h -8 c -0.570312 0 -1 -0.429688 -1 -1 v -2 h -2 v 2 c 0 1.644531 1.355469 3 3 3 h 8 c 1.644531 0 3 -1.355469 3 -3 v -10 c 0 -1.644531 -1.355469 -3 -3 -3 z m 0 0"/><path d="m 6 4 v 1 c 0 0.257812 0.128906 0.527344 0.3125 0.71875 l 1.28125 1.28125 h -7.59375 v 2 h 7.59375 l -1.28125 1.28125 c -0.183594 0.191406 -0.3125 0.410156 -0.3125 0.71875 v 1 h 1 c 0.308594 0 0.550781 -0.089844 0.75 -0.28125 l 3.65625 -3.71875 l -3.65625 -3.71875 c -0.199219 -0.191406 -0.441406 -0.28125 -0.75 -0.28125 z m 0 0"/></svg>

<svg xmlns="http://www.w3.org/2000/svg" width="16" height="16">
    <path d="M5 0C3.355 0 2 1.355 2 3v2h2V3c0-.57.43-1 1-1h8c.57 0 1 .43 1 1v10c0 .57-.43 1-1 1H5c-.57 0-1-.43-1-1v-2H2v2c0 1.645 1.355 3 3 3h8c1.645 0 3-1.355 3-3V3c0-1.645-1.355-3-3-3zm0 0"/>
    <path d="M6 4v1c0 .258.129.527.313.719L7.593 7H0v2h7.594l-1.282 1.281C6.13 10.473 6 10.691 6 11v1h1c.309 0 .55-.09.75-.281L11.406 8 7.75 4.281C7.55 4.09 7.309 4 7 4zm0 0"/>
</svg>
